Numix/16/status/indicator-keyboard-Ru.svg

<?xml version="1.0" encoding="UTF-8" standalone="no"?>
<svg
   xmlns:dc="http://purl.org/dc/elements/1.1/"
   xmlns:cc="http://creativecommons.org/ns#"
   xmlns:rdf="http://www.w3.org/1999/02/22-rdf-syntax-ns#"
   xmlns:svg="http://www.w3.org/2000/svg"
   xmlns="http://www.w3.org/2000/svg"
   xmlns:sodipodi="http://sodipodi.sourceforge.net/DTD/sodipodi-0.dtd"
   xmlns:inkscape="http://www.inkscape.org/namespaces/inkscape"
   viewBox="0 0 16 16"
   id="svg2"
   version="1.1"
   inkscape:version="0.91 r13725"
   sodipodi:docname="indicator-keyboard-Ru.svg">
  <metadata
     id="metadata13">
    <rdf:RDF>
      <cc:Work
         rdf:about="">
        <dc:format>image/svg+xml</dc:format>
        <dc:type
           rdf:resource="http://purl.org/dc/dcmitype/StillImage" />
      </cc:Work>
    </rdf:RDF>
  </metadata>
  <defs
     id="defs11" />
  <sodipodi:namedview
     pagecolor="#ffffff"
     bordercolor="#666666"
     borderopacity="1"
     objecttolerance="10"
     gridtolerance="10"
     guidetolerance="10"
     inkscape:pageopacity="0"
     inkscape:pageshadow="2"
     inkscape:window-width="640"
     inkscape:window-height="480"
     id="namedview9"
     showgrid="false"
     inkscape:zoom="14.75"
     inkscape:cx="8"
     inkscape:cy="8"
     inkscape:window-x="65"
     inkscape:window-y="24"
     inkscape:window-maximized="0"
     inkscape:current-layer="svg2" />
  <path
     style="fill:#ececec;fill-opacity:1"
     d="M 1.5996094 0 C 0.71320937 2.9605947e-16 0 0.71320937 0 1.5996094 L 0 14.400391 C 2.9605947e-16 15.286791 0.71320937 16 1.5996094 16 L 14.400391 16 C 15.286791 16 16 15.286791 16 14.400391 L 16 1.5996094 C 16 0.71320937 15.286791 0 14.400391 0 L 1.5996094 0 z M 5.0195312 4.8085938 C 5.8775312 4.8085938 6.5230781 4.9709219 6.9550781 5.2949219 C 7.3930781 5.6189219 7.6113281 6.1003281 7.6113281 6.7363281 C 7.6113281 7.2043281 7.4881875 7.5717969 7.2421875 7.8417969 C 6.9961875 8.1117969 6.6734844 8.3077344 6.2714844 8.4277344 C 6.3674844 8.5477344 6.490625 8.7100625 6.640625 8.9140625 C 6.796625 9.1180625 6.9551875 9.3418906 7.1171875 9.5878906 C 7.2791875 9.8278906 7.43775 10.07975 7.59375 10.34375 C 7.74975 10.60775 7.8822344 10.859609 7.9902344 11.099609 L 7.3339844 11.099609 C 7.2079844 10.859609 7.0699219 10.620859 6.9199219 10.380859 C 6.7759219 10.140859 6.62475 9.9094999 6.46875 9.6875 C 6.31875 9.4595 6.1713437 9.2486406 6.0273438 9.0566406 L 5.6503906 8.5527344 C 5.4583906 8.5707344 5.2662187 8.5800781 5.0742188 8.5800781 L 4.0664062 8.5800781 L 4.0664062 11.099609 L 3.4550781 11.099609 L 3.4550781 4.9804688 C 3.6710781 4.9204687 3.9229375 4.8794688 4.2109375 4.8554688 C 4.5049375 4.8254687 4.7735312 4.8085937 5.0195312 4.8085938 z M 5.0917969 5.3398438 C 4.8637969 5.3398438 4.6622812 5.3491875 4.4882812 5.3671875 C 4.3202812 5.3791875 4.1804062 5.3922969 4.0664062 5.4042969 L 4.0664062 8.0585938 L 4.9121094 8.0585938 C 5.1941094 8.0585938 5.4608906 8.0474375 5.7128906 8.0234375 C 5.9648906 7.9934375 6.1850938 7.9317969 6.3710938 7.8417969 C 6.5570937 7.7457969 6.7025469 7.6115 6.8105469 7.4375 C 6.9185469 7.2635 6.9726563 7.0265625 6.9726562 6.7265625 C 6.9726562 6.4505625 6.9185469 6.2229688 6.8105469 6.0429688 C 6.7025469 5.8629687 6.5626719 5.7211406 6.3886719 5.6191406 C 6.2146719 5.5111406 6.0131562 5.4402969 5.7851562 5.4042969 C 5.5631562 5.3622969 5.3317969 5.3398438 5.0917969 5.3398438 z M 8.9179688 6.4472656 L 9.5039062 6.4472656 L 9.5039062 8.8691406 C 9.5039062 9.1991406 9.5281719 9.4770781 9.5761719 9.7050781 C 9.6241719 9.9330781 9.7025469 10.119672 9.8105469 10.263672 C 9.9185469 10.401672 10.056609 10.504312 10.224609 10.570312 C 10.398609 10.630313 10.607516 10.660156 10.853516 10.660156 C 11.129516 10.660156 11.370219 10.645234 11.574219 10.615234 C 11.778219 10.585234 11.906938 10.557203 11.960938 10.533203 L 11.960938 6.4472656 L 12.544922 6.4472656 L 12.544922 10.939453 C 12.370922 10.987453 12.13775 11.039609 11.84375 11.099609 C 11.54975 11.159609 11.189672 11.191406 10.763672 11.191406 C 10.415672 11.191406 10.124625 11.139109 9.890625 11.037109 C 9.656625 10.935109 9.4682188 10.791469 9.3242188 10.605469 C 9.1802187 10.419469 9.0757656 10.193687 9.0097656 9.9296875 C 8.9497656 9.6656875 8.9179687 9.3746406 8.9179688 9.0566406 L 8.9179688 6.4472656 z "
     id="path4" />
</svg>

<svg xmlns="http://www.w3.org/2000/svg" viewBox="0 0 16 16">
 <path d="m 1.6 0 c -0.886 0 -1.6 0.713 -1.6 1.6 l 0 12.801 c 0 0.886 0.713 1.6 1.6 1.6 l 12.801 0 c 0.886 0 1.6 -0.713 1.6 -1.6 l 0 -12.801 c 0 -0.886 -0.713 -1.6 -1.6 -1.6 l -12.801 0 z m 3.42 4.809 c 0.858 0 1.504 0.162 1.936 0.486 c 0.438 0.324 0.656 0.805 0.656 1.441 c 0 0.468 -0.123 0.835 -0.369 1.105 c -0.246 0.27 -0.569 0.466 -0.971 0.586 c 0.096 0.12 0.219 0.282 0.369 0.486 c 0.156 0.204 0.315 0.428 0.477 0.674 c 0.162 0.24 0.321 0.492 0.477 0.756 c 0.156 0.264 0.288 0.516 0.396 0.756 l -0.656 0 c -0.126 -0.24 -0.264 -0.479 -0.414 -0.719 c -0.144 -0.24 -0.295 -0.471 -0.451 -0.693 c -0.15 -0.228 -0.297 -0.439 -0.441 -0.631 l -0.377 -0.504 c -0.192 0.018 -0.384 0.027 -0.576 0.027 l -1.01 0 l 0 2.52 l -0.611 0 l 0 -6.119 c 0.216 -0.06 0.468 -0.101 0.756 -0.125 c 0.294 -0.03 0.563 -0.047 0.809 -0.047 z m 0.072 0.531 c -0.228 0 -0.43 0.009 -0.604 0.027 c -0.168 0.012 -0.308 0.025 -0.422 0.037 l 0 2.654 l 0.846 0 c 0.282 0 0.549 -0.011 0.801 -0.035 c 0.252 -0.03 0.472 -0.092 0.658 -0.182 c 0.186 -0.096 0.331 -0.23 0.439 -0.404 c 0.108 -0.174 0.162 -0.411 0.162 -0.711 c 0 -0.276 -0.054 -0.504 -0.162 -0.684 c -0.108 -0.18 -0.248 -0.322 -0.422 -0.424 c -0.174 -0.108 -0.376 -0.179 -0.604 -0.215 c -0.222 -0.042 -0.453 -0.064 -0.693 -0.064 z m 3.826 1.107 l 0.586 0 l 0 2.422 c 0 0.33 0.024 0.608 0.072 0.836 c 0.048 0.228 0.126 0.415 0.234 0.559 c 0.108 0.138 0.246 0.241 0.414 0.307 c 0.174 0.06 0.383 0.09 0.629 0.09 c 0.276 0 0.517 -0.015 0.721 -0.045 c 0.204 -0.03 0.333 -0.058 0.387 -0.082 l 0 -4.086 l 0.584 0 l 0 4.492 c -0.174 0.048 -0.407 0.1 -0.701 0.16 c -0.294 0.06 -0.654 0.092 -1.08 0.092 c -0.348 0 -0.639 -0.052 -0.873 -0.154 c -0.234 -0.102 -0.422 -0.246 -0.566 -0.432 c -0.144 -0.186 -0.248 -0.412 -0.314 -0.676 c -0.06 -0.264 -0.092 -0.555 -0.092 -0.873 l 0 -2.609 z" style="fill:#ececec;fill-opacity:1"/>
</svg>
